X:010
T:Bashful Bachelor 1 (hornpipe) 
B:CRE3.214	(BaitsilÃÂÃÂÃÂÃÂ©ir CÃÂÃÂÃÂÃÂºthail 1)
F:file ID: cre.3/010bash_b1
R:hornpipe
N:Simplified m.4: /A2GE D2CA,/
L:1/8
Q:150
M:C
K:G
C2|B,DGA BGDB,|C2 (3EFA cAFD|B,DGB cBcB|\
"4"(3ABA (3GFE (3DED (3CB,A,|
B,DGA BGDB,|CEAB cAFD|B,DGB c>dB>c|(3ABA G2G2:|
ga|bgg2 dgBg|dgBg dgBg|(3bag fg dgBg|eaag a2ga|
bgg2 dgBd|BccB cdef|gdBG FGAc|B2G2G2:|

%%%

